**kern	**kern	**dynam
*part1	*part1	*part1
*staff2	*staff1	*
*I"Piano	*	*
*clefF4	*clefG2	*
*k[b-e-a-]	*k[b-e-a-]	*
=1	=1	=1
(16FLL	8b-'	.
16B-	.	.
16d	8r	.
16f	.	.
.	(8qaan/	.
16d	8bb-')	.
16B-JJ)	.	.
=	=	=
(16GLL	8b-'	.
16B-	.	.
16c	8r	.
16g	.	.
.	(8qaan/	.
16c	8bb-')	.
16B-JJ)	.	.
=	=	=
!	!LO:TX:a:i:t=colla voce	!
(16DLL	8b-	.
16B-	.	.
16fJJ)	8r	.
16r	.	.
!	!LO:TX:b:i:t=dim.	!
.	(8qaan/	.
8r	8bb-')	.
=	=	=
(16E-LL	8b-'	.
16B-	.	.
16gJJ)	8r	.
16r	.	.
.	(8qaan/	.
8r	8bb-')	.
=	=	=
(16EEnLL	[4.g [4.b- [4.dd-X [4.gg	ppp
16BB-	.	.
16D-X	.	.
16En	.	.
16G	.	.
16B-JJ	.	.
=	=	=
16d-XLL	4g] 4b-] 4dd-X] 4gg]	.
16en	.	.
16g>	.	.
16b->	.	.
16dd-X>	8rffyy	.
16eenJJ>	.	.
=	=	=
4.r	8gg)	.
.	8bb-'L	<
.	8bb-'J	.
=	=	=
*-	*-	*-
!!!system-decoration: {(s1,s2)}
!!!RDF**kern: > = above
